FINK
CUT[WAER ICH EIN MUNTERES VOEGELEIN]
REG[Europa, Mitteleuropa, Deutschland]
KEY[F1102  16  G 2/4]
MEL[-5_  3_321_1_  56543_
    3_  2_.21-7-6-5  5_3_1_
    3_  2_.32_2_  54#54#5_
    4_  3_.35432  1_321_
    3_  4_0__5#_  6_0__
    +1_  5_.35423  1_0__
    4#_  5_0__4#_  5_0__
    5_  3_.32_2_  1_0__ //] >>
FCT[Natur - Lied]
